Papirus/48x48/apps/mx-user.svg

<svg width="48" height="48" version="1.1" xmlns="http://www.w3.org/2000/svg">
 <path d="m16 9c-2.762 0-5 2.239-5 5s2.238 5 5 5 5-2.239 5-5-2.238-5-5-5zm0 13c-9.999 6e-3 -10 6.4-10 6.4v2.6s1.846142 4 10 4 10-4 10-4v-2.6s0-6.404-9.998-6.4z" style="opacity:.2"/>
 <path d="m16 8c-2.762 0-5 2.239-5 5s2.238 5 5 5 5-2.239 5-5-2.238-5-5-5zm0 13c-9.999 6e-3 -10 6.4-10 6.4v2.6s1.846142 4 10 4 10-4 10-4v-2.6s0-6.404-9.998-6.4z" style="fill:#38a334"/>
 <path d="m32 15c-2.762 0-5 2.239-5 5s2.238 5 5 5 5-2.239 5-5-2.238-5-5-5zm0 13c-9.999 6e-3 -10 6.4-10 6.4v2.6s1.846142 4 10 4 10-4 10-4v-2.6s0-6.404-9.998-6.4z" style="opacity:.2"/>
 <path d="m32 14c-2.762 0-5 2.239-5 5s2.238 5 5 5 5-2.239 5-5-2.238-5-5-5zm0 13c-9.999 6e-3 -10 6.4-10 6.4v2.6s1.846142 4 10 4 10-4 10-4v-2.6s0-6.404-9.998-6.4z" style="fill:#0f56d9"/>
</svg>

<svg xmlns="http://www.w3.org/2000/svg" width="48" height="48" version="1.1">
 <path style="opacity:0.2" d="M 32,15 C 29.238,15 27,17.239 27,20 27,22.761 29.238,25 32,25 34.762,25 37,22.761 37,20 37,17.239 34.762,15 32,15 Z M 22,34.4 V 37 C 22,37 23.846,41 32,41 40.154,41 42,37 42,37 V 34.4 C 42,34.4 42.24,28.041 32,28 21.761,27.961 22,34.4 22,34.4 Z M 16,9 C 13.238,9 11,11.239 11,14 11,16.761 13.238,19 16,19 18.762,19 21,16.761 21,14 21,11.239 18.762,9 16,9 Z M 6,28.4 V 31 C 6,31 7.846,35 16,35 24.154,35 26,31 26,31 V 28.4 C 26,28.4 26.24,22.041 16,22 5.761,21.961 6,28.4 6,28.4 Z"/>
 <path style="fill:#38a334" d="M 16,8 C 13.238,8 11,10.239 11,13 11,15.761 13.238,18 16,18 18.762,18 21,15.761 21,13 21,10.239 18.762,8 16,8 Z M 6,27.4 V 30 C 6,30 7.846,34 16,34 24.154,34 26,30 26,30 V 27.4 C 26,27.4 26.24,21.041 16,21 5.761,20.961 6,27.4 6,27.4 Z"/>
 <path style="fill:#0f56d9" d="M 32,14 C 29.238,14 27,16.239 27,19 27,21.761 29.238,24 32,24 34.762,24 37,21.761 37,19 37,16.239 34.762,14 32,14 Z M 22,33.4 V 36 C 22,36 23.846,40 32,40 40.154,40 42,36 42,36 V 33.4 C 42,33.4 42.24,27.041 32,27 21.761,26.961 22,33.4 22,33.4 Z"/>
 <path style="fill:#ffffff;opacity:0.2" d="M 16 8 C 13.238 8 11 10.239 11 13 C 11 13.169 11.009 13.336 11.025 13.5 C 11.276 10.974 13.407 9 16 9 C 18.593 9 20.724 10.974 20.975 13.5 C 20.991 13.336 21 13.169 21 13 C 21 10.239 18.762 8 16 8 z M 32 14 C 29.238 14 27 16.239 27 19 C 27 19.169 27.009 19.336 27.025 19.5 C 27.276 16.974 29.407 15 32 15 C 34.593 15 36.724 16.974 36.975 19.5 C 36.991 19.336 37 19.169 37 19 C 37 16.239 34.762 14 32 14 z M 16 21 C 5.761 20.961 6 27.4 6 27.4 L 6 28.4 C 6 28.4 5.761 21.961 16 22 C 24.797 22.035 25.856 26.723 25.98 28.047 C 21.873 29.861 22 33.4 22 33.4 L 22 34.4 C 22 34.4 21.761 27.961 32 28 C 42.24 28.041 42 34.4 42 34.4 L 42 33.4 C 42 33.4 42.24 27.041 32 27 C 29.367 26.99 27.43 27.41 26 28.037 L 26 27.4 C 26 27.4 26.24 21.041 16 21 z"/>
</svg>
